X: 3
T: The Old Stack of Wheat
R: reel
M: 4/4
L: 1/8
K: Gmaj
(B | B)ded Bded | gded Bde2 | fged BGAB | deBA GE2 G|
| Bded Bded | gded Bde2 | fged BGAB | GAGE FG2 A |
| Bded Bded | gded Bde2 | fged BGAB | deBAGE2 z |
| GGEDE GAB | G (3 ABA GAB de | fged BGAB | GAGE FG3 |

% |: edBd edgd | edBd e3 z | fg edB GAB |[1 ddBAG E2 d:|2 GAGEFG2 |]
% |: AGED EG3 | B ~A2  GAB de | fged BGAB | ddB AG E3 |
% | GGEDE GAB | G ~A2 GAB de | fged BGAB | GAG EF G3 :|

